24x24/panel/xfce4-notes-plugin.svg

<svg height="24" width="24" xmlns="http://www.w3.org/2000/svg"><path d="m6.285 4a2.28 2.28 0 0 0 -2.285 2.285v11.43a2.28 2.28 0 0 0 2.285 2.285h11.43a2.28 2.28 0 0 0 2.285-2.285v-11.43a2.28 2.28 0 0 0 -2.285-2.285zm.715 3h10v2h-10zm0 4h10v2h-10zm0 4h6v2h-6z" fill="#8b9cbe"/></svg>

<svg height="24" width="24" xmlns="http://www.w3.org/2000/svg">
    <path d="M6.285 4A2.28 2.28 0 0 0 4 6.285v11.43A2.28 2.28 0 0 0 6.285 20h11.43A2.28 2.28 0 0 0 20 17.715V6.285A2.28 2.28 0 0 0 17.715 4zM7 7h10v2H7zm0 4h10v2H7zm0 4h6v2H7z" fill="#8b9cbe"/>
</svg>
